X: 38
T:Ice House Schottische No. 2
M:4/4
L:1/8
C:Nigel Eaton
R:Schottische
Z:Steve Mansfield
K:C
ef | g3f edcB | A2f2 d3c | d2dc defg | a2ag f2e2 | d2de dcBA |
G2f2 d3c | d2dc defg | d6 ::g2 | c'3c' b2g2 | c'2a2 f2a2 | g2e2 d2de |
fedc d2g2 | c'3c' b2g2 | c'2a2 f3a | g2e2 d2de | fede c2 :|
<end>
<start>
